X:295
T: John Bowe's
S: "First Collection of Traditional Irish Music" (M.Mulvihill)
Z: B.Black
L: 1/8
M: 4/4
R: reel
K: C
z2|G,CEC B,DGF|EccB cGEG|FAdF EGcG|FEDC B,G,A,B,|
C2 DC B,DGF|EccB cGEG|FAdc BGFD|ECCB, C2 :|
ef|ge (3eee fdBd|c2 Bd cGEG|FAdF EGce|fedc defa|
ge (3eee fdBd|c2 Bd cGEG|FAdc BGFD|ECCB, C2 :|
